src/assets/about/legoCard.svg

<svg width="269" height="83" viewBox="0 0 269 83" fill="none" xmlns="http://www.w3.org/2000/svg">
<g filter="url(#filter0_d_330_61)">
<rect x="5" width="259" height="72.9327" rx="36.4664" fill="white"/>
</g>
<path d="M120.464 47V29.96H125.144V42.92H132.872V47H120.464ZM146.647 42.92V47H134.503V29.96H146.431V34.04H139.183V36.44H145.375V40.232H139.183V42.92H146.647ZM155.934 47.12C154.83 47.12 153.774 46.928 152.766 46.544C151.774 46.144 150.894 45.568 150.126 44.816C149.358 44.048 148.75 43.128 148.302 42.056C147.87 40.968 147.654 39.728 147.654 38.336C147.654 37.136 147.878 36.024 148.326 35C148.774 33.976 149.39 33.08 150.174 32.312C150.974 31.528 151.902 30.92 152.958 30.488C154.014 30.056 155.158 29.84 156.39 29.84C157.926 29.84 159.318 30.176 160.566 30.848C161.814 31.504 162.742 32.408 163.35 33.56L159.87 36.224C159.534 35.552 159.03 35.016 158.358 34.616C157.686 34.2 156.974 33.992 156.222 33.992C155.662 33.992 155.15 34.104 154.686 34.328C154.222 34.552 153.814 34.864 153.462 35.264C153.126 35.664 152.862 36.144 152.67 36.704C152.494 37.248 152.406 37.848 152.406 38.504C152.406 39.176 152.502 39.784 152.694 40.328C152.886 40.872 153.15 41.344 153.486 41.744C153.838 42.128 154.254 42.432 154.734 42.656C155.214 42.864 155.75 42.968 156.342 42.968C157.094 42.968 157.814 42.784 158.502 42.416C159.19 42.032 159.814 41.496 160.374 40.808V45.368C159.094 46.536 157.614 47.12 155.934 47.12ZM160.134 41.288H156.99V37.928H163.998V47H160.134V41.288ZM173.988 47.144C172.692 47.144 171.516 46.904 170.46 46.424C169.404 45.928 168.492 45.272 167.724 44.456C166.972 43.624 166.388 42.696 165.972 41.672C165.572 40.632 165.372 39.56 165.372 38.456C165.372 37.32 165.588 36.24 166.02 35.216C166.452 34.192 167.052 33.28 167.82 32.48C168.604 31.664 169.524 31.024 170.58 30.56C171.652 30.096 172.82 29.864 174.084 29.864C175.38 29.864 176.556 30.112 177.612 30.608C178.668 31.088 179.572 31.744 180.324 32.576C181.076 33.408 181.652 34.344 182.052 35.384C182.468 36.408 182.676 37.464 182.676 38.552C182.676 39.672 182.46 40.744 182.028 41.768C181.612 42.792 181.012 43.712 180.228 44.528C179.46 45.328 178.548 45.968 177.492 46.448C176.436 46.912 175.268 47.144 173.988 47.144ZM170.124 38.504C170.124 39.08 170.204 39.64 170.364 40.184C170.524 40.712 170.764 41.192 171.084 41.624C171.404 42.04 171.804 42.376 172.284 42.632C172.78 42.872 173.364 42.992 174.036 42.992C174.708 42.992 175.292 42.864 175.788 42.608C176.284 42.352 176.684 42.008 176.988 41.576C177.308 41.128 177.54 40.64 177.684 40.112C177.844 39.568 177.924 39.016 177.924 38.456C177.924 37.88 177.844 37.328 177.684 36.8C177.524 36.272 177.284 35.8 176.964 35.384C176.644 34.952 176.236 34.616 175.74 34.376C175.244 34.136 174.668 34.016 174.012 34.016C173.34 34.016 172.756 34.144 172.26 34.4C171.78 34.656 171.38 35 171.06 35.432C170.74 35.848 170.5 36.328 170.34 36.872C170.196 37.4 170.124 37.944 170.124 38.504Z" fill="black"/>
<g clip-path="url(#clip0_330_61)">
<path d="M35.2583 16.2676H72.7512V55.7326H35.2583V16.2676Z" fill="white"/>
<path d="M70.2563 32.6727C70.193 33.9026 69.8221 35.4345 69.4947 36.4578C68.176 40.5817 66.6474 43.1364 63.1087 43.1364C62.067 43.1364 60.2167 42.8459 59.5371 40.8949L59.3746 40.4311L59.0846 40.818C57.9781 42.2949 56.3331 43.1467 54.5722 43.1551C53.2217 43.1619 52.1356 42.6854 51.4342 41.7782L51.2412 41.5276L51.0366 41.7653C50.286 42.6369 48.9802 43.1364 47.453 43.1364C46.2541 43.1364 45.2187 42.7093 44.5375 41.9307L44.352 41.7172L44.1584 41.9238C43.4014 42.7277 42.2084 43.1331 40.7079 43.0973C38.887 43.0514 37.7788 41.9811 37.7434 40.2346C37.6883 37.5414 40.1641 31.8746 41.1896 30.1521C41.8558 29.0014 42.7704 28.4435 43.9879 28.4435C44.8171 28.4435 45.3831 28.626 45.7208 29.0014C46.0268 29.3436 46.0879 29.6318 46.1146 30.3244L46.1506 31.2202L46.5995 30.4588C47.6866 28.6145 49.4872 28.3608 51.2725 28.3608C52.5135 28.3608 53.5962 28.8406 54.0309 29.5848L54.1918 29.8582L54.4241 29.6502C55.3438 28.8269 56.642 28.3733 58.0778 28.3733C59.6455 28.3733 60.7852 28.7834 61.4651 29.594C61.6187 29.7778 61.7212 29.9064 61.863 30.2199L62.0377 30.6058L62.3005 30.2796C63.2942 29.0403 64.6537 28.4123 66.3402 28.4123C67.6754 28.4123 68.6878 28.7855 69.351 29.5216C70.1841 30.4461 70.3032 31.7461 70.2563 32.6727ZM35.2583 55.7326H72.7512V16.2676H35.2583V55.7326Z" fill="#FFFF00"/>
<path d="M71.312 34.1874C71.1418 35.6228 70.2191 38.2838 69.7302 39.3469C68.4147 42.1982 66.6581 44.3893 63.2753 44.3893C61.4677 44.3893 59.9806 43.7808 59.1113 42.6164C57.8382 43.7899 56.2618 44.4055 54.5654 44.4055C53.2568 44.4055 52.1021 44.0084 51.2216 43.2732C50.2486 43.9944 48.9372 44.3963 47.4825 44.3963C46.2682 44.3963 45.1757 44.046 44.3199 43.3973C43.3741 44.0575 42.1343 44.3862 40.6784 44.3492C38.2565 44.2894 36.5842 42.6726 36.5361 40.3254C36.4724 37.2062 38.9679 31.4979 40.1444 29.5205C41.0237 27.999 42.3677 27.1814 44.0128 27.1814C45.7992 27.1814 46.4472 27.7189 46.7652 28.402C48.1441 27.1688 49.9715 27.0986 51.2717 27.0986C52.7085 27.0986 53.6089 27.4995 54.3754 28.1426C55.4347 27.4741 56.6479 27.1274 58.0945 27.1274C59.9445 27.1274 61.3171 27.5798 62.2748 28.5767C63.3919 27.5972 64.7925 27.1515 66.3582 27.1515C68.4296 27.1515 69.7922 27.9382 70.5931 29.1095C71.7202 30.7631 71.5194 32.4281 71.312 34.1874ZM35.2583 55.7326H72.7512V16.2676H35.2583V55.7326Z" fill="#FF0000"/>
<path d="M35.5225 16.5512H72.477V55.4501H35.5225V16.5512ZM35 56.0001H72.9997V16H35V56.0001Z" fill="black"/>
<path d="M71.2948 27.109C71.1751 27.1089 71.0566 27.1337 70.946 27.1819C70.8354 27.2302 70.735 27.3009 70.6504 27.3901C70.5659 27.4793 70.4989 27.5852 70.4534 27.7017C70.4078 27.8182 70.3846 27.9431 70.385 28.0691C70.3848 28.1949 70.4081 28.3195 70.4538 28.4357C70.4994 28.5519 70.5665 28.6576 70.651 28.7465C70.7355 28.8354 70.8359 28.9058 70.9464 28.9537C71.0569 29.0017 71.1753 29.0262 71.2948 29.0258C71.7999 29.0258 72.2068 28.5998 72.2068 28.0691C72.2071 27.9429 72.1837 27.818 72.1379 27.7014C72.0922 27.5848 72.025 27.4788 71.9403 27.3896C71.8555 27.3004 71.7549 27.2297 71.6441 27.1816C71.5333 27.1334 71.4146 27.1087 71.2948 27.109ZM71.2948 27.2985C71.6994 27.2985 72.029 27.6429 72.029 28.0691C72.029 28.4928 71.6996 28.8395 71.2948 28.8395C70.8912 28.8395 70.566 28.4928 70.566 28.0691C70.566 27.643 70.8911 27.2985 71.2948 27.2985ZM71.7585 28.5685L71.6493 28.3688C71.5544 28.1932 71.5273 28.1667 71.4474 28.1356V28.1311C71.6068 28.1117 71.7019 28.0025 71.7019 27.8531C71.7019 27.6959 71.6068 27.5765 71.4042 27.5765H70.9351V28.5686H71.1291V28.1621H71.1639C71.2468 28.1621 71.2807 28.1713 71.3189 28.2115C71.3561 28.2517 71.4139 28.3355 71.4478 28.4067L71.5232 28.5686L71.7585 28.5685ZM71.1288 28.0025V27.7314H71.3034C71.4324 27.7314 71.4998 27.7786 71.4998 27.8659C71.4998 27.9358 71.4573 28.0024 71.3264 28.0024L71.1288 28.0025ZM66.5904 32.5935C66.5511 33.6156 65.1287 37.7025 64.6235 38.6039C64.4045 38.9954 64.1578 39.3182 63.7127 39.317C63.3244 39.317 63.1519 39.0275 63.141 38.6969C63.1123 37.7747 64.7205 33.1516 65.2705 32.3994C65.5148 32.003 65.7875 31.939 66.0996 31.9435C66.5559 31.9494 66.6013 32.2962 66.5904 32.5935ZM69.1825 34.2621C68.8596 35.9559 68.1331 37.9595 67.3431 39.4525C66.0558 41.8893 64.4926 42.2302 63.128 42.213C61.7644 42.1958 60.2239 41.6654 60.213 39.4489C60.2044 37.8572 60.8565 35.6111 61.411 34.1388C62.3753 31.4689 63.3615 29.293 66.4793 29.332C70.1145 29.377 69.4665 32.7807 69.1825 34.2621ZM57.6397 31.8884C57.1128 31.8884 56.7691 32.2387 56.5128 32.6176C55.9498 33.4501 54.728 36.7883 54.5383 38.1595C54.4095 39.099 54.7938 39.2894 55.2156 39.2894C55.891 39.2894 56.648 38.5373 56.9065 37.2959C56.9065 37.2959 55.6202 37.2625 55.975 36.0623C56.3187 34.8968 56.9733 34.6453 58.0565 34.5982C60.1914 34.5064 59.9799 36.1656 59.8095 37.0499C59.255 39.9231 57.3124 42.2312 54.5641 42.2312C52.6828 42.2312 51.5157 41.1347 51.5157 39.1161C51.5157 37.678 52.1937 35.4194 52.7308 34.0978C53.8747 31.2844 55.0747 29.315 58.1315 29.315C59.9652 29.315 61.412 30.0085 61.1992 31.8172C61.0442 33.1447 60.4136 33.9243 59.2674 34.0185C58.9466 34.0447 57.6343 34.0093 58.0695 32.7025C58.2209 32.2467 58.2842 31.8884 57.6397 31.8884ZM48.076 36.8632C47.9495 37.2224 47.7117 37.9724 47.5197 38.7683C48.1432 38.6052 48.6111 38.4894 49.413 38.5111C50.3272 38.534 50.9115 38.9338 50.9115 39.7284C50.9115 41.6563 48.8873 42.2226 47.4827 42.2226C45.9401 42.2226 44.5863 41.2981 44.5863 39.5237C44.5863 37.4417 45.6576 34.2873 46.6628 32.1858C47.8983 29.6043 49.1606 29.2609 51.3337 29.2609C52.2888 29.2609 53.389 29.6906 53.389 30.639C53.389 31.9551 52.3302 32.4568 51.2796 32.5212C50.8318 32.5476 50.1418 32.5739 49.7295 32.543C49.7295 32.543 49.3798 33.1046 49.0078 34.1025C50.9524 33.8142 51.7772 34.2794 51.4487 35.4633C51.0052 37.0617 49.6879 37.1675 48.076 36.8632ZM41.8829 38.7129C43.7849 38.3652 44.2634 39.0897 44.2028 39.7581C44.0244 41.7652 42.2751 42.2131 40.7565 42.1764C39.6553 42.1488 38.6652 41.6185 38.6375 40.2725C38.5895 37.9184 40.8706 32.4718 41.9451 30.6667C42.4404 29.8091 43.0447 29.3863 44.0085 29.3863C44.9211 29.3863 45.148 29.8789 45.1343 30.4703C45.0989 32.0468 42.677 36.8401 41.8829 38.7129ZM66.3398 28.1368C64.3761 28.1368 63.019 28.9567 62.1004 30.1005C61.9454 29.7585 61.8264 29.608 61.6606 29.4103C60.9089 28.5157 59.699 28.0977 58.0769 28.0977C56.4919 28.0977 55.1705 28.6191 54.2533 29.4401C53.7766 28.6248 52.6415 28.0838 51.2718 28.0838C49.4822 28.0838 47.5331 28.3515 46.3758 30.3128C46.349 29.6064 46.2874 29.2334 45.91 28.812C45.4518 28.3021 44.71 28.1677 43.9872 28.1677C42.6699 28.1677 41.6793 28.773 40.9664 30.0065C39.9323 31.7461 37.4241 37.4695 37.4814 40.2404C37.5168 42.0318 38.6586 43.3215 40.7008 43.372C42.2968 43.4122 43.5481 42.9631 44.3444 42.1179C45.0585 42.9333 46.1488 43.4132 47.4526 43.4132C48.9045 43.4132 50.367 42.9552 51.2304 41.9515C51.9581 42.8908 53.1019 43.4375 54.573 43.4303C56.4974 43.4214 58.186 42.4613 59.2903 40.9889C59.8945 42.724 61.4306 43.4131 63.1085 43.4131C66.7848 43.4131 68.3982 40.7535 69.7435 36.546C70.0467 35.5974 70.4506 34.0162 70.5182 32.6878C70.6292 30.4761 69.7402 28.1368 66.3398 28.1368Z" fill="black"/>
</g>
<defs>
<filter id="filter0_d_330_61" x="0" y="0" width="269" height="82.9327" filterUnits="userSpaceOnUse" color-interpolation-filters="sRGB">
<feFlood flood-opacity="0" result="BackgroundImageFix"/>
<feColorMatrix in="SourceAlpha" type="matrix" values="0 0 0 0 0 0 0 0 0 0 0 0 0 0 0 0 0 0 127 0" result="hardAlpha"/>
<feOffset dy="5"/>
<feGaussianBlur stdDeviation="2.5"/>
<feComposite in2="hardAlpha" operator="out"/>
<feColorMatrix type="matrix" values="0 0 0 0 0 0 0 0 0 0 0 0 0 0 0 0 0 0 0.25 0"/>
<feBlend mode="normal" in2="BackgroundImageFix" result="effect1_dropShadow_330_61"/>
<feBlend mode="normal" in="SourceGraphic" in2="effect1_dropShadow_330_61" result="shape"/>
</filter>
<clipPath id="clip0_330_61">
<rect width="38" height="40" fill="white" transform="translate(35 16)"/>
</clipPath>
</defs>
</svg>

<svg xmlns="http://www.w3.org/2000/svg" width="269" height="83" fill="none"><g filter="url(#a)"><rect width="259" height="72.933" x="5" fill="#fff" rx="36.466"/></g><path fill="#000" d="M120.464 47V29.96h4.68v12.96h7.728V47h-12.408Zm26.183-4.08V47h-12.144V29.96h11.928v4.08h-7.248v2.4h6.192v3.792h-6.192v2.688h7.464Zm9.287 4.2a8.824 8.824 0 0 1-3.168-.576 8.033 8.033 0 0 1-2.64-1.728 8.474 8.474 0 0 1-1.824-2.76c-.432-1.088-.648-2.328-.648-3.72 0-1.2.224-2.312.672-3.336a8.486 8.486 0 0 1 1.848-2.688 8.575 8.575 0 0 1 2.784-1.824c1.056-.432 2.2-.648 3.432-.648 1.536 0 2.928.336 4.176 1.008 1.248.656 2.176 1.56 2.784 2.712l-3.48 2.664a3.847 3.847 0 0 0-1.512-1.608 3.992 3.992 0 0 0-2.136-.624c-.56 0-1.072.112-1.536.336a3.847 3.847 0 0 0-1.224.936c-.336.4-.6.88-.792 1.44a5.823 5.823 0 0 0-.264 1.8c0 .672.096 1.28.288 1.824.192.544.456 1.016.792 1.416.352.384.768.688 1.248.912.48.208 1.016.312 1.608.312.752 0 1.472-.184 2.16-.552.688-.384 1.312-.92 1.872-1.608v4.56c-1.28 1.168-2.76 1.752-4.44 1.752Zm4.2-5.832h-3.144v-3.36h7.008V47h-3.864v-5.712Zm13.854 5.856c-1.296 0-2.472-.24-3.528-.72a8.927 8.927 0 0 1-2.736-1.968 9.4 9.4 0 0 1-1.752-2.784c-.4-1.04-.6-2.112-.6-3.216a8.25 8.25 0 0 1 .648-3.24 8.93 8.93 0 0 1 1.8-2.736 8.564 8.564 0 0 1 2.76-1.92c1.072-.464 2.24-.696 3.504-.696 1.296 0 2.472.248 3.528.744a8.162 8.162 0 0 1 2.712 1.968 8.94 8.94 0 0 1 1.728 2.808 8.343 8.343 0 0 1-.024 6.384 8.658 8.658 0 0 1-1.8 2.76c-.768.8-1.68 1.44-2.736 1.92-1.056.464-2.224.696-3.504.696Zm-3.864-8.64c0 .576.08 1.136.24 1.68.16.528.4 1.008.72 1.44.32.416.72.752 1.2 1.008.496.24 1.08.36 1.752.36.672 0 1.256-.128 1.752-.384s.896-.6 1.2-1.032c.32-.448.552-.936.696-1.464a5.84 5.84 0 0 0 0-3.312c-.16-.528-.4-1-.72-1.416a3.27 3.27 0 0 0-1.224-1.008c-.496-.24-1.072-.36-1.728-.36-.672 0-1.256.128-1.752.384-.48.256-.88.6-1.2 1.032-.32.416-.56.896-.72 1.44a6.175 6.175 0 0 0-.216 1.632Z"/><g clip-path="url(#b)"><path fill="#fff" d="M35.258 16.268h37.493v39.465H35.258V16.268Z"/><path fill="#FF0" d="M70.256 32.673c-.063 1.23-.434 2.761-.761 3.785-1.319 4.124-2.848 6.678-6.386 6.678-1.042 0-2.892-.29-3.572-2.241l-.162-.464-.29.387c-1.107 1.477-2.752 2.329-4.513 2.337-1.35.007-2.436-.47-3.138-1.377l-.193-.25-.204.237c-.751.872-2.057 1.371-3.584 1.371-1.199 0-2.234-.427-2.916-1.205l-.185-.214-.194.207c-.757.804-1.95 1.21-3.45 1.173-1.821-.046-2.93-1.116-2.965-2.862-.055-2.694 2.421-8.36 3.447-10.083.666-1.15 1.58-1.709 2.798-1.709.83 0 1.395.183 1.733.558.306.343.367.63.394 1.323l.036.896.448-.761c1.088-1.845 2.888-2.098 4.674-2.098 1.24 0 2.323.48 2.758 1.224l.16.273.233-.208c.92-.823 2.218-1.277 3.654-1.277 1.567 0 2.707.41 3.387 1.221.154.184.256.312.398.626l.175.386.263-.326c.993-1.24 2.353-1.868 4.04-1.868 1.334 0 2.347.373 3.01 1.11.833.924.952 2.224.905 3.15Zm-34.998 23.06h37.493V16.268H35.258v39.465Z"/><path fill="red" d="M71.312 34.187c-.17 1.436-1.093 4.097-1.582 5.16-1.315 2.851-3.072 5.042-6.455 5.042-1.807 0-3.294-.608-4.164-1.773-1.273 1.174-2.85 1.79-4.546 1.79-1.308 0-2.463-.398-3.343-1.133-.973.721-2.285 1.123-3.74 1.123-1.214 0-2.306-.35-3.162-.999-.946.66-2.186.99-3.642.952-2.421-.06-4.094-1.676-4.142-4.024-.064-3.119 2.432-8.827 3.608-10.805.88-1.521 2.224-2.339 3.869-2.339 1.786 0 2.434.538 2.752 1.221 1.38-1.233 3.206-1.303 4.507-1.303 1.437 0 2.337.4 3.103 1.044 1.06-.669 2.273-1.016 3.72-1.016 1.85 0 3.222.453 4.18 1.45 1.117-.98 2.518-1.426 4.083-1.426 2.072 0 3.434.787 4.235 1.959 1.127 1.653.926 3.318.719 5.077ZM35.258 55.733h37.493V16.268H35.258v39.465Z"/><path fill="#000" d="M35.523 16.551h36.954v38.9H35.522v-38.9ZM35 56.001h38V16H35v40Z"/><path fill="#000" d="M71.295 27.109a.87.87 0 0 0-.349.073.91.91 0 0 0-.296.208 1 1 0 0 0-.197 1.046.96.96 0 0 0 .198.31.866.866 0 0 0 .644.28c.505 0 .912-.426.912-.957a1 1 0 0 0-.267-.68.908.908 0 0 0-.296-.207.87.87 0 0 0-.35-.073Zm0 .19c.404 0 .734.344.734.77 0 .424-.33.77-.734.77-.404 0-.729-.346-.729-.77 0-.426.325-.77.729-.77Zm.463 1.27-.109-.2c-.095-.176-.122-.202-.202-.233v-.005c.16-.02.255-.128.255-.278 0-.157-.095-.277-.298-.277h-.469v.993h.194v-.407h.035c.083 0 .117.01.155.05.037.04.095.123.129.195l.075.162h.236Zm-.63-.566v-.272h.175c.13 0 .197.048.197.135 0 .07-.043.136-.174.136h-.197Zm-4.538 4.59c-.039 1.023-1.461 5.11-1.966 6.01-.22.392-.466.715-.911.714-.389 0-.561-.29-.572-.62-.029-.922 1.58-5.545 2.13-6.298.244-.396.516-.46.829-.456.456.006.501.353.49.65Zm2.593 1.67c-.323 1.693-1.05 3.697-1.84 5.19-1.287 2.436-2.85 2.777-4.215 2.76-1.364-.017-2.904-.548-2.915-2.764-.009-1.592.643-3.838 1.198-5.31.964-2.67 1.95-4.846 5.068-4.807 3.636.045 2.987 3.449 2.704 4.93ZM57.64 31.887c-.527 0-.87.35-1.127.73-.563.832-1.785 4.17-1.975 5.541-.128.94.256 1.13.678 1.13.675 0 1.432-.752 1.69-1.993 0 0-1.286-.033-.931-1.234.344-1.165.998-1.417 2.081-1.464 2.135-.092 1.924 1.568 1.754 2.452-.555 2.873-2.498 5.181-5.246 5.181-1.881 0-3.048-1.096-3.048-3.115 0-1.438.678-3.697 1.215-5.018 1.144-2.814 2.344-4.783 5.4-4.783 1.834 0 3.281.694 3.068 2.502-.155 1.328-.785 2.107-1.932 2.202-.32.026-1.633-.01-1.198-1.316.152-.456.215-.815-.43-.815Zm-9.564 4.975c-.127.36-.364 1.11-.556 1.905.623-.163 1.091-.279 1.893-.257.914.023 1.498.423 1.498 1.217 0 1.928-2.024 2.495-3.428 2.495-1.543 0-2.897-.925-2.897-2.7 0-2.081 1.072-5.236 2.077-7.337 1.235-2.582 2.498-2.925 4.67-2.925.956 0 2.056.43 2.056 1.378 0 1.316-1.059 1.818-2.11 1.882-.447.027-1.137.053-1.55.022 0 0-.35.562-.721 1.56 1.944-.289 2.77.176 2.44 1.36-.443 1.599-1.76 1.704-3.372 1.4Zm-6.193 1.85c1.902-.348 2.38.377 2.32 1.045-.179 2.007-1.928 2.455-3.447 2.418-1.1-.027-2.09-.558-2.118-1.904-.048-2.354 2.233-7.8 3.307-9.605.495-.858 1.1-1.28 2.063-1.28.913 0 1.14.492 1.126 1.083-.035 1.577-2.457 6.37-3.251 8.243ZM66.34 28.137c-1.964 0-3.321.82-4.24 1.963a2.564 2.564 0 0 0-.44-.69c-.751-.894-1.961-1.312-3.583-1.312-1.585 0-2.907.521-3.824 1.342-.476-.815-1.611-1.356-2.981-1.356-1.79 0-3.739.268-4.896 2.229-.027-.707-.089-1.08-.466-1.501-.458-.51-1.2-.644-1.923-.644-1.317 0-2.308.605-3.02 1.838-1.035 1.74-3.543 7.463-3.486 10.234.036 1.792 1.178 3.081 3.22 3.132 1.596.04 2.847-.409 3.643-1.254.715.815 1.805 1.295 3.109 1.295 1.451 0 2.914-.458 3.777-1.461.728.939 1.872 1.486 3.343 1.478 1.924-.009 3.613-.969 4.717-2.441.605 1.735 2.14 2.424 3.819 2.424 3.676 0 5.29-2.66 6.634-6.867.304-.949.708-2.53.775-3.858.111-2.212-.778-4.551-4.178-4.551Z"/></g><defs><clipPath id="b"><path fill="#fff" d="M35 16h38v40H35z"/></clipPath><filter id="a" width="269" height="82.933" x="0" y="0" color-interpolation-filters="sRGB" filterUnits="userSpaceOnUse"><feFlood flood-opacity="0" result="BackgroundImageFix"/><feColorMatrix in="SourceAlpha" result="hardAlpha" values="0 0 0 0 0 0 0 0 0 0 0 0 0 0 0 0 0 0 127 0"/><feOffset dy="5"/><feGaussianBlur stdDeviation="2.5"/><feComposite in2="hardAlpha" operator="out"/><feColorMatrix values="0 0 0 0 0 0 0 0 0 0 0 0 0 0 0 0 0 0 0.25 0"/><feBlend in2="BackgroundImageFix" result="effect1_dropShadow_330_61"/><feBlend in="SourceGraphic" in2="effect1_dropShadow_330_61" result="shape"/></filter></defs></svg>
